imgs/Sweden.svg

<svg width="25" height="18" viewBox="0 0 25 18" fill="none" xmlns="http://www.w3.org/2000/svg">
<path fill-rule="evenodd" clip-rule="evenodd" d="M0.00683594 0H7.00684V7.20422H0.00683594V0ZM0.00683594 10.7958H7.00684V18H0.00683594V10.7958Z" fill="#006AA7"/>
<path fill-rule="evenodd" clip-rule="evenodd" d="M0.00683594 7H7.00684V11H0.00683594V7Z" fill="#FECC00"/>
<path fill-rule="evenodd" clip-rule="evenodd" d="M10.0068 10.7958H24.0068V18H10.0068V10.7958ZM10.0068 0H24.0068V7.20422H10.0068V0Z" fill="#006AA7"/>
<path fill-rule="evenodd" clip-rule="evenodd" d="M7.00684 0H11.0068V18H7.00684V0Z" fill="#FECC00"/>
<path fill-rule="evenodd" clip-rule="evenodd" d="M10.0068 7H24.0068V11H10.0068V7Z" fill="#FECC00"/>
</svg>

<svg width="25" height="18" fill="none" xmlns="http://www.w3.org/2000/svg"><path fill-rule="evenodd" clip-rule="evenodd" d="M.007 0h7v7.204h-7V0zm0 10.796h7V18h-7v-7.204z" fill="#006AA7"/><path fill-rule="evenodd" clip-rule="evenodd" d="M.007 7h7v4h-7V7z" fill="#FECC00"/><path fill-rule="evenodd" clip-rule="evenodd" d="M10.007 10.796h14V18h-14v-7.204zm0-10.796h14v7.204h-14V0z" fill="#006AA7"/><path fill-rule="evenodd" clip-rule="evenodd" d="M7.007 0h4v18h-4V0z" fill="#FECC00"/><path fill-rule="evenodd" clip-rule="evenodd" d="M10.007 7h14v4h-14V7z" fill="#FECC00"/></svg>
